svgs/regular/shuttle-space.svg

<svg xmlns="http://www.w3.org/2000/svg" viewBox="0 0 640 512"><!--! Font Awesome Pro 6.3.0 by @fontawesome - https://fontawesome.com License - https://fontawesome.com/license (Commercial License) Copyright 2023 Fonticons, Inc. --><path d="M32 384H24c-13.3 0-24-10.7-24-24V328 184 152c0-13.3 10.7-24 24-24h8V80c0-26.5 21.5-48 48-48h50c40.6 0 80.4 11 115.2 31.9L405.3 160H456c69.3 0 135 22.7 179.2 81.6c6.4 8.5 6.4 20.3 0 28.8C591 329.3 525.3 352 456 352H405.3L245.2 448.1C210.4 469 170.6 480 130 480H80c-26.5 0-48-21.5-48-48V384zm280-32H168c-9.9 13.2-23.9 23.3-40 28.3V432h2c31.9 0 63.2-8.7 90.6-25.1L312 352zm0-192l-91.5-54.9C193.2 88.7 161.9 80 130 80h-2v51.7c16.1 5.1 30.1 15.1 40 28.3H312zM48 184V328v8h56c12.7 0 23.8-7.4 28.9-18.3c4-8.4 12.4-13.7 21.7-13.7H456c32.6 0 62.4-5.8 88-18.5V226.5c-25.6-12.6-55.4-18.5-88-18.5H154.6c-9.3 0-17.7-5.3-21.7-13.7C127.8 183.4 116.7 176 104 176H48v8zm416 40c8.8 0 16 7.2 16 16v32c0 8.8-7.2 16-16 16s-16-7.2-16-16V240c0-8.8 7.2-16 16-16z"/></svg>

<svg xmlns="http://www.w3.org/2000/svg" viewBox="0 0 640 512"><!--! Font Awesome Pro 6.2.0 by @fontawesome - https://fontawesome.com License - https://fontawesome.com/license (Commercial License) Copyright 2022 Fonticons, Inc. --><path d="M480 240V272C480 280.8 472.8 288 464 288C455.2 288 448 280.8 448 272V240C448 231.2 455.2 224 464 224C472.8 224 480 231.2 480 240zM32 384H24C10.75 384 0 373.3 0 360V152C0 138.7 10.75 128 24 128H32V80C32 53.49 53.49 32 80 32H129.1C170.6 32 210.4 43.03 245.2 63.92L405.3 160H456C525.3 160 591 182.7 635.2 241.6C641.6 250.1 641.6 261.9 635.2 270.4C591 329.3 525.3 352 456 352H405.3L245.2 448.1C210.4 468.1 170.6 480 129.1 480H80C53.49 480 32 458.5 32 432V384zM312 352H168C158.1 365.2 144.1 375.3 128 380.3V432H129.1C161.9 432 193.2 423.3 220.5 406.9L312 352zM312 160L220.5 105.1C193.2 88.67 161.9 80 129.1 80H128V131.7C144.1 136.7 158.1 146.8 168 160H312zM48 336H104C116.7 336 127.8 328.6 132.9 317.7C136.9 309.3 145.3 304 154.6 304H456C488.6 304 518.4 298.2 544 285.5V226.5C518.4 213.8 488.6 208 456 208H154.6C145.3 208 136.9 202.7 132.9 194.3C127.8 183.4 116.7 176 104 176H48V336z"/></svg>
